src/pos-icons/fridge-bottom.svg

<svg height="24" viewBox="0 0 24 24" width="24" xmlns="http://www.w3.org/2000/svg"><path d="m7 2a2 2 0 0 0 -2 2v15a2 2 0 0 0 2 2v1h2v-1h6v1h2v-1a2 2 0 0 0 2-2v-15a2 2 0 0 0 -2-2zm1 4h2v2h-2zm-1 5h10v8h-10zm1 1v3h2v-3z"/></svg>

<?xml version="1.0" encoding="UTF-8"?><!DOCTYPE svg PUBLIC "-//W3C//DTD SVG 1.1//EN" "http://www.w3.org/Graphics/SVG/1.1/DTD/svg11.dtd"><svg xmlns="http://www.w3.org/2000/svg" xmlns:xlink="http://www.w3.org/1999/xlink" version="1.1" id="mdi-fridge-bottom" width="24" height="24" viewBox="0 0 24 24"><path d="M7,2A2,2 0 0,0 5,4V19A2,2 0 0,0 7,21V22H9V21H15V22H17V21A2,2 0 0,0 19,19V4A2,2 0 0,0 17,2H7M8,6H10V8H8V6M7,11H17V19H7V11M8,12V15H10V12H8Z" /></svg>
